svgs/sharp-regular/camera-viewfinder.svg

<svg xmlns="http://www.w3.org/2000/svg" viewBox="0 0 512 512"><!--! Font Awesome Pro 6.6.0 by @fontawesome - https://fontawesome.com License - https://fontawesome.com/license (Commercial License) Copyright 2024 Fonticons, Inc. --><path d="M0 0L0 24 0 136l0 24 48 0 0-24 0-88 88 0 24 0 0-48L136 0 24 0 0 0zM200 96l-15.8 0-6.2 14.5L170.5 128 120 128l-24 0 0 24 0 208 0 24 24 0 272 0 24 0 0-24 0-208 0-24-24 0-50.5 0-7.5-17.5L327.8 96 312 96 200 96zm8.3 65.5l7.5-17.5 80.3 0 7.5 17.5 6.2 14.5 15.8 0 42.3 0 0 160-224 0 0-160 42.3 0 15.8 0 6.2-14.5zM256 312a56 56 0 1 0 0-112 56 56 0 1 0 0 112zM488 0L376 0 352 0l0 48 24 0 88 0 0 88 0 24 48 0 0-24 0-112 0-24L488 0zM0 512l24 0 112 0 24 0 0-48-24 0-88 0 0-88 0-24L0 352l0 24L0 488l0 24zm488 0l24 0 0-24 0-112 0-24-48 0 0 24 0 88-88 0-24 0 0 48 24 0 112 0z"/></svg>

<svg xmlns="http://www.w3.org/2000/svg" viewBox="0 0 512 512"><!--! Font Awesome Pro 6.5.2 by @fontawesome - https://fontawesome.com License - https://fontawesome.com/license (Commercial License) Copyright 2024 Fonticons, Inc. --><path d="M0 0V24 136v24H48V136 48h88 24V0H136 24 0zM200 96H184.2l-6.2 14.5L170.5 128H120 96v24V360v24h24H392h24V360 152 128H392 341.5l-7.5-17.5L327.8 96H312 200zm8.3 65.5l7.5-17.5h80.3l7.5 17.5 6.2 14.5h15.8H368V336H144V176h42.3 15.8l6.2-14.5zM256 312a56 56 0 1 0 0-112 56 56 0 1 0 0 112zM488 0H376 352V48h24 88v88 24h48V136 24 0H488zM0 512H24 136h24V464H136 48V376 352H0v24V488v24zm488 0h24V488 376 352H464v24 88H376 352v48h24H488z"/></svg>
